X:1
T:Sommaren kommer
T:W. Peterson-Berger (1867-1942)
T:Sommaren kommer
T:©CPDL Edition may be freely distributed, duplicated, performed and recorded PA Aglert
T:©CPDL Edition may be freely distributed, duplicated, performed and recorded PA Aglert
T:©CPDL Edition may be freely distributed, duplicated, performed and recorded PA Aglert
T:©CPDL Edition may be freely distributed, duplicated, performed and recorded PA Aglert
T:©CPDL Edition may be freely distributed, duplicated, performed and recorded PA Aglert
T:©CPDL Edition may be freely distributed, duplicated, performed and recorded PA Aglert
C:W. Peterson-Berger (1867-1942)
Z:©CPDL Edition may be freely distributed, duplicated, performed and recorded
Z:PA Aglert
%%score [ 1 2 3 4 ]
L:1/8
Q:1/4=100
M:6/8
K:Bb
V:1 treble nm="S"
V:2 treble nm="A"
V:3 treble-8 nm="T"
V:4 bass nm="B"
V:1
"^Con moto."!mf! d>dd dBc | dcA G2 F | F>GA (BG)B | ddA!>(! d3!>)! |!mf! G>!<(!AG!<)! e2 d | %5
w: Som- ma- ren kom- mer till|sko- gar och lun- der|med si- na him- * mels-|nyck- lar så blid,|ro- par: vak upp till|
!>(! d!>)!c!<(!G (B!<)!!>(!A)G!>)! |!<(! F>GF!<)! ddc |!>(! (cB)!>)!D!p!"^rit."!<(! (F2 ^F)!<)! | %8
w: ljuv- li- ga stun- * der|allt som för- tvi- nat om|vin- * ter- tid! *|
!mf! G>"^a tempo"DF E2 E |!<(! D>^F!<)!B!>(! G3!>)! |!<(! B>AG!<)! F"^rit."fB | %11
w: All kre- a- tur i|mark och i bur|fröj- das nu, vart ef- ter|
 (cd)!>(!F !fermata!B3!>)! |!mf!!<(! A>AA d2 d!<)! |!f! ^f=ef d2 A | %14
w: sin * na- tur.|So- len går fram med|seg- ran- de glin- der,|
!mf!!>(! !courtesy!_B>cB !courtesy!=F2 G!>)! |!p! AA=E A3 |!mf!!<(! A>AA d2 d!<)! | %17
w: hjor- ten vid käl- lan|mö- ter sitt viv.|Ström- mar- na vand- ra|
!f! ^f=ef!>(! d2 =B!>)! |!mf!!>(! d>^c=B!>)!!p! c^f^F | ^A2!>(! A ^F3!>)! | %20
w: u- tan för- hin- der,|al- la små blom- mor nu|fång- a liv.|
!mf! !courtesy!=G>A!>(!G =E2!>)! E |!<(! ^F2!<)! A!f!!>(! c3!>)! |!p! !courtesy!_B>cB G!<(!EG | %23
w: Gi- ga och dans så|mång- en- stans|hö- ras kring stång- en med|
 F2!<)! c"^rit."!p!!<(! f3!<)! |!mf!"^a tempo" d>dd (dB)c | dcA G2 F | F>GA BGB | d2 A d3 | %28
w: band och krans.|Skö- nas- te plat- * ser,|grö- nas- te mar- ker,|blom- stri- ga äng- ar, den|mju- ka slätt|
!<(! G>AG!<)!!f! eed |!>(! dc!>)!!<(!G (B!<)!!>(!A)G!>)! | F>!<(!GF!<)! ddc | %31
w: väl- jas till lek i de|lum- mi- ga par- * ker,|fag- ras- te jung- frur där|
!>(! cBD!>)!!p! (F2 ^F) |!mf! G>DF E2 E |!<(! D>^F!<)!B!>(! G3!>)! |!<(! B>AG!<)! F"^rit."fB | %35
w: sving- a sig nätt. *|Trött- nar än- då de|föt- ter så små|sit- ta de ne- der vid|
!>(! cdF B3!>)! |] %36
w: flo- der- na blå.|
V:2
!mf! D>DD EEE | FEF E2 E | D>DD D2 D | FFF!>(! F3!>)! |!mf! F>!<(!FF!<)! F2 F | %5
w: Som- ma- ren kom- mer till|sko- gar och lun- der|med si- na him- mels-|nyck- lar så blid,|ro- par: vak upp till|
!>(! EE!>)!!<(!E E2!<)!!>(! E!>)! |!<(! E>EE!<)! EEE |!>(! D2 D!>)!!p!"^rit."!<(! D3!<)! | %8
w: ljuv- li- ga stun- der|allt som för- tvi- nat om|vin- ter- tid!|
!mf! D>"^a tempo"DD E2 C |!<(! C>C!<)!C!>(! (B,2 C)!>)! |!<(! ^C>CC!<)! D"^rit."BD | %11
w: All kre- a- tur i|mark och i bur *|fröj- das nu, vart ef- ter|
 E2!>(! E !fermata!D3!>)! |!mf!!<(! D>DD ^F2 F!<)! |!f! GGG ^F2 F |!mf!!>(! G>AG D2 D!>)! | %15
w: sin na- tur.|So- len går fram med|seg- ran- de glin- der,|hjor- ten vid käl- lan|
!p! =EE^C E3 |!mf!!<(! ^F>FF F2 F!<)! |!f! =BB^A!>(! B2 ^F!>)! |!mf!!>(! ^F>FF!>)!!p! ^AF^C | %19
w: mö- ter sitt viv.|Ström- mar- na vand- ra|u- tan för- hin- der,|al- la små blom- mor nu|
 ^D2!>(! ^E ^C3!>)! |!mf! =E>^F!>(!E ^C2!>)! E |!<(! D2!<)! ^F!f!!>(! G3!>)! | %22
w: fång- a liv.|Gi- ga och dans så|mång- en- stans|
!p! F>FF !courtesy!_E!<(!EE | E2!<)! E"^rit."!p!!<(! [EF]3!<)! |!mf!"^a tempo" [DF]>[DF][DF] E2 E | %25
w: hö- ras kring stång- en med|band och krans.|Skö- nas- te plat- ser,|
 FEF E2 E | D>DD DDD | F2 F F3 |!<(! F>FF!<)!!f! FFF |!>(! EE!>)!!<(!E!<)! E2!>(! E!>)! | %30
w: grö- nas- te mar- ker,|blom- stri- ga äng- ar, den|mju- ka slätt|väl- jas till lek i de|lum- mi- ga par- ker,|
 E>!<(!EE!<)! EEE |!>(! DD!>)!D!p!!<(! D3!<)! |!mf! D>DD E2 C |!<(! C>CC!<)!!>(! (B,2 C)!>)! | %34
w: fag- ras- te jung- frur där|sving- a sig nätt.|Trött- nar än- då de|föt- ter så små *|
!<(! ^C>C!<)!C D"^rit."BD |!>(! EEE!>)! D3 |] %36
w: sit- ta de ne- der vid|flo- der- na blå.|
V:3
!mf! F>FF GGG | AAc B2 A | B>BB B2 B | AAd!>(! A3!>)! |!mf! =B>!<(!cB!<)! A2 B | %5
w: Som- ma- ren kom- mer till|sko- gar och lun- der|med si- na him- mels-|nyck- lar så blid,|ro- par: vak upp till|
!>(! GG!>)!!<(!G c2!<)!!>(! c!>)! |!<(! c>c!<)!c B!>(!AA!>)! | F2 F!p!"^rit."!<(! (d2 c)!<)! | %8
w: ljuv- li- ga stun- der|allt som för- tvi- nat om|vin- ter- tid! *|
!mf! =B>"^a tempo"BB c2 G |!<(! ^F>D!<)!F!>(! G3!>)! |!<(! G>AB!<)! B"^rit."dF | %11
w: All kre- a- tur i|mark och i bur|fröj- das nu, vart ef- ter|
 G2!>(! A !fermata!F3!>)! |!mf!!<(! ^F>FF A2 A!<)! |!f! =BB^c d2 d |!mf!!>(! d>dd d2 d!>)! | %15
w: sin na- tur.|So- len går fram med|seg- ran- de glin- der,|hjor- ten vid käl- lan|
!p! ^ccA c3 |!mf!!<(! d>dd d2 d!<)! |!f! d^c=e!>(! ^f2 d!>)! |!mf!!>(! =B>^cd!>)!!p! ^fc^A | %19
w: mö- ter sitt viv.|Ström- mar- na vand- ra|u- tan för- hin- der,|al- la små blom- mor nu|
 =B2!>(! B ^A3!>)! |!mf! =B>B!>(!B ^c2!>)! c |!<(! A2!<)! d!f!!>(! =e3!>)! |!p! d>Ad B!<(!GB | %23
w: fång- a liv.|Gi- ga och dans så|mång- en- stans|hö- ras kring stång- en med|
 A2!<)! B"^rit."!p! (G2!<(! A)!<)! |!mf!"^a tempo" F>FF G2 G | AAc B2 A | B>BB BBB | A2 d A3 | %28
w: band och krans. *|Skö- nas- te plat- ser,|grö- nas- te mar- ker,|blom- stri- ga äng- ar, den|mju- ka slätt|
!<(! =B>c!<)!B!f! AAB |!>(! GG!>)!!<(!G c2!<)!!>(! c!>)! | c>!<(!cc!<)! BAA | %31
w: väl- jas till lek i de|lum- mi- ga par- ker,|fag- ras- te jung- frur där|
!>(! FFF!>)!!p!!<(! (d2 c)!<)! |!mf! =B>BB c2 G |!<(! ^F>D!<)!F!>(! G3!>)! | %34
w: sving- a sig nätt. *|Trött- nar än- då de|föt- ter så små|
!<(! G>A!<)!B B"^rit."dF |!>(! GGA!>)! F3 |] %36
w: sit- ta de ne- der vid|flo- der- na blå.|
V:4
!mf! B,,>B,,B,, B,,B,,B,, | B,,B,,B,, B,,2 B,, | B,>B,A, G,2 G, | D,D,D,!>(! D,3!>)! | %4
w: Som- ma- ren kom- mer till|sko- gar och lun- der|med si- na him- mels-|nyck- lar så blid,|
!mf! G,>!<(!G,G,!<)! G,2 G, |!>(! C,C,!>)!!<(!C,!<)! C2!>(! B,!>)! | %6
w: ro- par: vak upp till|ljuv- li- ga stun- der|
!<(! A,>B,A,!<)! G,!>(!G,F,!>)! | B,,2 B,,!p!"^rit." (B,2!<(! A,)!<)! | %8
w: allt som för- tvi- nat om|vin- ter- tid! *|
!mf! G,>"^a tempo"G,G, C,2 C, |!<(! D,>D,!<)!D,!>(! E,3!>)! |!<(! =E,>E,E, F,!<)!"^rit."F,F, | %11
w: All kre- a- tur i|mark och i bur|fröj- das nu, vart ef- ter|
 F,2!>(! F,!>)! !fermata!B,,3 |!mf!!<(! D,>D,D, D,2 D,!<)! |!f! D,D,D, D,2 D, | %14
w: sin na- tur.|So- len går fram med|seg- ran- de glin- der,|
!mf!!>(! G,>G,G, B,2 B,!>)! |!p! A,A,A, A,3 |!mf!!<(! D,3 =B,,2 B,,!<)! | %17
w: hjor- ten vid käl- lan|mö- ter sitt viv.|Ström- mar- na|
!f! G,,G,^F,!>(! =B,2 B,!>)! |!mf!!>(! ^G,>G,G,!>)!!p! ^C^A,A, | ^C,2!>(! C, ^F,3!>)! | %20
w: gå u- tan hin- der,|al- la små blom- mor nu|fång- a liv.|
!mf! =E,>E,!>(!E,!>)! !courtesy!=A,2 A, |!<(! D,2!<)! D,!f!!>(! D,3!>)! |!p! D,>D,D, C,!<(!C,C, | %23
w: Gi- ga och dans så|mång- en- stans|hö- ras kring stång- en med|
 F,2!<)! F,"^rit."!p! F,3 |!mf!"^a tempo"!<(! B,,>B,,B,, B,,2 B,,!<)! | B,,B,,B,, B,,2 B,, | %26
w: band och krans.|Skö- nas- te plat- ser,|grö- nas- te mar- ker,|
 B,>B,A, G,G,G, | D,2 D, D,3 |!<(! G,>G,!<)!G,!f! G,G,G, |!>(! C,!>)!C,!<(!C, C2!<)!!>(! B,!>)! | %30
w: blom- stri- ga äng- ar, den|mju- ka slätt|väl- jas till lek i de|lum- mi- ga par- ker,|
 A,>!<(!B,A,!<)! G,G,F, |!>(! B,,B,,!>)!B,,!p!!<(! (B,2 A,)!<)! |!mf! G,>G,G, C,2 C, | %33
w: fag- ras- te jung- frur där|sving- a sig nätt. *|Trött- nar än- då de|
!<(! D,>D,!<)!D,!>(! E,3!>)! |!<(! =E,>E,!<)!E, F,"^rit."F,F, |!>(! F,F,F,!>)! B,,3 |] %36
w: föt- ter så små|sit- ta de ne- der vid|flo- der- na blå.|

